img/logo-grad.svg

<svg width="32" height="29" viewBox="0 0 32 29" fill="none" xmlns="http://www.w3.org/2000/svg">
<path d="M8.07015 6.29028C8.06389 6.27456 8.06134 6.25759 8.06271 6.24072C8.06407 6.22385 8.06932 6.20751 8.07803 6.19299C8.08674 6.17848 8.09867 6.16613 8.11292 6.15698C8.12716 6.14784 8.14333 6.14214 8.16015 6.14026H25.6201C27.2157 6.1088 28.7395 5.47102 29.8818 4.35657C31.0241 3.24211 31.6993 1.73458 31.7701 0.140259C31.7715 0.127115 31.7703 0.113859 31.7665 0.101196C31.7627 0.0885338 31.7565 0.0767572 31.7481 0.0665283C31.7397 0.0562994 31.7294 0.0477223 31.7177 0.0415039C31.7061 0.0352855 31.6933 0.0315227 31.6801 0.0302734H7.10014C3.72014 0.0302734 0.320144 2.88028 1.10014 6.16028L11.6601 26.9003C12.3701 28.0103 13.5701 28.9902 16.3401 28.9902C18.8001 28.9902 20.3401 27.9903 21.0801 26.9003L30.3501 8.66028C30.3567 8.64519 30.3595 8.62872 30.3582 8.6123C30.3569 8.59589 30.3515 8.58001 30.3426 8.56616C30.3337 8.55231 30.3215 8.54085 30.3071 8.53284C30.2927 8.52483 30.2766 8.52053 30.2601 8.52026H24.9001C24.5304 8.51381 24.1653 8.60237 23.8396 8.77747C23.5139 8.95256 23.2387 9.20832 23.0401 9.52026L16.4101 22.4602C16.404 22.4779 16.3925 22.4932 16.3773 22.504C16.3621 22.5149 16.3438 22.5206 16.3251 22.5206C16.3065 22.5206 16.2882 22.5149 16.273 22.504C16.2578 22.4932 16.2463 22.4779 16.2401 22.4602L8.07015 6.29028Z" fill="url(#paint0_linear_221_505)"/>
<defs>
<linearGradient id="paint0_linear_221_505" x1="1.00014" y1="14.5003" x2="31.7701" y2="14.5003" gradientUnits="userSpaceOnUse">
<stop offset="0.04" stop-color="white"/>
<stop offset="0.14" stop-color="#D8D8D8"/>
<stop offset="0.25" stop-color="#B5B5B5"/>
<stop offset="0.37" stop-color="#989898"/>
<stop offset="0.5" stop-color="#828282"/>
<stop offset="0.63" stop-color="#727272"/>
<stop offset="0.79" stop-color="#696969"/>
<stop offset="1" stop-color="#666666"/>
</linearGradient>
</defs>
</svg>

<svg width="32" height="29" fill="none" xmlns="http://www.w3.org/2000/svg"><path d="M8.07 6.29a.11.11 0 01.09-.15h17.46a6.28 6.28 0 006.15-6 .1.1 0 00-.052-.098.1.1 0 00-.038-.012H7.1c-3.38 0-6.78 2.85-6 6.13L11.66 26.9c.71 1.11 1.91 2.09 4.68 2.09 2.46 0 4-1 4.74-2.09l9.27-18.24a.1.1 0 00-.09-.14H24.9a2.16 2.16 0 00-1.86 1l-6.63 12.94a.09.09 0 01-.137.044.09.09 0 01-.033-.044L8.07 6.29z" fill="url(#paint0_linear_221_505)"/><defs><linearGradient id="paint0_linear_221_505" x1="1" y1="14.5" x2="31.77" y2="14.5" gradientUnits="userSpaceOnUse"><stop offset=".04" stop-color="#fff"/><stop offset=".14" stop-color="#D8D8D8"/><stop offset=".25" stop-color="#B5B5B5"/><stop offset=".37" stop-color="#989898"/><stop offset=".5" stop-color="#828282"/><stop offset=".63" stop-color="#727272"/><stop offset=".79" stop-color="#696969"/><stop offset="1" stop-color="#666"/></linearGradient></defs></svg>
